src/ui/mail.svg

<?xml version="1.0" encoding="UTF-8"?><svg xmlns="http://www.w3.org/2000/svg" width="32" height="32" viewBox="0 0 32 32"><defs><style>.uuid-2c2de894-8fb4-4940-be36-32bfe043c8ec{fill:none;}.uuid-e2e02bd3-89f6-44af-9fda-d612164020ec{fill:#151515;}</style></defs><g id="uuid-c55f48de-c91c-4041-bf2b-3d236c194545"><rect class="uuid-2c2de894-8fb4-4940-be36-32bfe043c8ec" width="32" height="32"/></g><g id="uuid-91744522-fc09-495f-97da-9bf18f792abb"><path class="uuid-e2e02bd3-89f6-44af-9fda-d612164020ec" d="M29.5,5H2.5c-.82715,0-1.5.67285-1.5,1.5v19c0,.82715.67285,1.5,1.5,1.5h27c.82715,0,1.5-.67285,1.5-1.5V6.5c0-.82715-.67285-1.5-1.5-1.5ZM3,8.23779l7.76221,7.76221-7.76221,7.76221v-15.52441ZM19.3819,15.38068c-.00031.00031-.00073.00037-.00104.00067s-.00037.00073-.00067.00104l-3.38019,3.38031-3.38019-3.38031c-.00031-.00031-.00037-.00073-.00067-.00104s-.00073-.00037-.00104-.00067L4.23779,7h23.52441l-8.38031,8.38068ZM12,17.23779l3.02734,3.02734c.25977.25977.60547.40283.97266.40283s.71289-.14307.97266-.40283l3.02734-3.02734,7.76221,7.76221H4.23779l7.76221-7.76221ZM21.23779,16l7.76221-7.76221v15.52441l-7.76221-7.76221Z"/></g></svg>

<svg xmlns="http://www.w3.org/2000/svg" viewBox="0 0 32 32">
  <path d="M29.5 5h-27C1.673 5 1 5.673 1 6.5v19c0 .827.673 1.5 1.5 1.5h27c.827 0 1.5-.673 1.5-1.5v-19c0-.827-.673-1.5-1.5-1.5ZM3 8.237 10.763 16 3 23.763V8.237Zm13 10.526L4.237 7h23.526L16 18.763Zm-4-1.526 3.028 3.028c.26.26.605.403.972.403s.712-.143.972-.403L20 17.237 27.763 25H4.237L12 17.237ZM21.237 16 29 8.237v15.526L21.237 16Z"/>
</svg>
